svg_schematique_blueprint/SCHB TIV D MOB 10.svg

<?xml version="1.0" encoding="UTF-8" standalone="no"?>
<svg
   xmlns:dc="http://purl.org/dc/elements/1.1/"
   xmlns:cc="http://creativecommons.org/ns#"
   xmlns:rdf="http://www.w3.org/1999/02/22-rdf-syntax-ns#"
   xmlns:svg="http://www.w3.org/2000/svg"
   xmlns="http://www.w3.org/2000/svg"
   height="64"
   width="64"
   version="1.1"
   id="svg2">
  <metadata
     id="metadata8">
    <rdf:RDF>
      <cc:Work
         rdf:about="">
        <dc:format>image/svg+xml</dc:format>
        <dc:type
           rdf:resource="http://purl.org/dc/dcmitype/StillImage" />
        <dc:title />
      </cc:Work>
    </rdf:RDF>
  </metadata>
  <defs
     id="defs6" />
  <path
     d="M 23.334572,-21.920263 H 67.175095 V 21.920259 H 23.334572 Z"
     transform="rotate(45.000001)"
     style="fill:#405CB1;fill-opacity:1;stroke:#E4EAF6;stroke-width:1.41431;stroke-miterlimit:4;stroke-dasharray:none;stroke-opacity:1"
     id="rect2989-6" />
  <g
     transform="translate(23.130119)"
     style="font-style:normal;font-variant:normal;font-weight:normal;font-stretch:normal;font-size:28.8248px;line-height:1.25;font-family:saxMono;-inkscape-font-specification:saxMono;letter-spacing:0px;word-spacing:0px;fill:#E4EAF6;fill-opacity:1;stroke:none;stroke-width:0.720619"
     id="texte"
     aria-label="10">
    <path
       id="path9"
       style="font-style:normal;font-variant:normal;font-weight:normal;font-stretch:normal;font-size:28.8248px;line-height:1.25;font-family:saxMono;-inkscape-font-specification:saxMono;letter-spacing:0px;word-spacing:0px;fill:#E4EAF6;fill-opacity:1;stroke:none;stroke-width:0.720619"
       d="M 0.00287732,39.748063 V 24.223768 H -2.7838954 q -1.0555957,0 -1.0555957,-0.914849 0,-0.928924 1.0555957,-0.928924 h 3.74384617 q 0.95707343,0 0.95707343,0.928924 v 16.439144 h 2.955668 q 1.083745,0 1.083745,0.985222 0,0.872626 -1.083745,0.872626 h -8.4025419 q -1.0837449,0 -1.0837449,-0.928924 0,-0.928924 1.0837449,-0.928924 z" />
    <path
       id="path11"
       style="font-style:normal;font-variant:normal;font-weight:normal;font-stretch:normal;font-size:28.8248px;line-height:1.25;font-family:saxMono;-inkscape-font-specification:saxMono;letter-spacing:0px;word-spacing:0px;fill:#E4EAF6;fill-opacity:1;stroke:none;stroke-width:0.720619"
       d="m 10.432163,36.07459 v -8.163274 q 0,-2.603803 1.59043,-4.250532 1.604506,-1.660804 4.405353,-1.660804 2.800848,0 4.363129,1.660804 1.562282,1.660804 1.562282,4.250532 v 8.163274 q 0,2.87122 -1.520058,4.391278 -1.520058,1.520058 -4.405353,1.520058 -2.800847,0 -4.405353,-1.562282 -1.59043,-1.562282 -1.59043,-4.349054 z m 9.992972,0 v -8.163274 q 0,-1.787475 -1.083745,-2.913444 -1.06967,-1.140043 -3.05419,-1.140043 -3.926816,0 -3.926816,4.053487 v 8.163274 q 0,1.928221 1.06967,2.997892 1.069671,1.06967 3.011967,1.06967 3.983114,0 3.983114,-4.067562 z" />
  </g>
</svg>

<svg xmlns="http://www.w3.org/2000/svg" width="64" height="64"><path d="M23.335-21.92h43.84v43.84h-43.84Z" style="fill:#405cb1;fill-opacity:1;stroke:#e4eaf6;stroke-width:1.41431;stroke-miterlimit:4;stroke-dasharray:none;stroke-opacity:1" transform="rotate(45)"/><g aria-label="10" style="font-style:normal;font-variant:normal;font-weight:400;font-stretch:normal;font-size:28.8248px;line-height:1.25;font-family:saxMono;-inkscape-font-specification:saxMono;letter-spacing:0;word-spacing:0;fill:#e4eaf6;fill-opacity:1;stroke:none;stroke-width:.720619"><path d="M.003 39.748V24.224h-2.787q-1.055 0-1.055-.915 0-.929 1.055-.929H.96q.957 0 .957.929v16.44h2.956q1.083 0 1.083.984 0 .873-1.083.873H-3.53q-1.084 0-1.084-.929t1.084-.929zM10.432 36.075V27.91q0-2.603 1.59-4.25Q13.628 22 16.429 22q2.8 0 4.363 1.66 1.562 1.662 1.562 4.251v8.164q0 2.87-1.52 4.39-1.52 1.52-4.405 1.52-2.8 0-4.405-1.561-1.59-1.563-1.59-4.35zm9.993 0V27.91q0-1.787-1.084-2.913-1.07-1.14-3.054-1.14-3.927 0-3.927 4.053v8.164q0 1.928 1.07 2.997 1.07 1.07 3.012 1.07 3.983 0 3.983-4.067z" style="font-style:normal;font-variant:normal;font-weight:400;font-stretch:normal;font-size:28.8248px;line-height:1.25;font-family:saxMono;-inkscape-font-specification:saxMono;letter-spacing:0;word-spacing:0;fill:#e4eaf6;fill-opacity:1;stroke:none;stroke-width:.720619" transform="translate(23.13)"/></g></svg>
